img/svg/tel.svg

<svg width="24" height="24" viewBox="0 0 24 24" fill="none" xmlns="http://www.w3.org/2000/svg">
<path d="M19.5 22C20.327 22 21 21.327 21 20.5V17C21 16.173 20.327 15.5 19.5 15.5C18.33 15.5 17.18 15.316 16.08 14.953C15.8171 14.87 15.5365 14.8599 15.2683 14.9238C15.0001 14.9877 14.7542 15.1233 14.557 15.316L13.117 16.756C10.6281 15.4048 8.58403 13.3614 7.232 10.873L8.66 9.436C9.072 9.054 9.22 8.473 9.044 7.914C8.68174 6.8123 8.49808 5.65973 8.5 4.5C8.5 3.673 7.827 3 7 3H3.5C2.673 3 2 3.673 2 4.5C2 14.15 9.85 22 19.5 22ZM3.5 4H7C7.13261 4 7.25979 4.05268 7.35355 4.14645C7.44732 4.24021 7.5 4.36739 7.5 4.5C7.5 5.777 7.7 7.031 8.093 8.22C8.12187 8.30628 8.12525 8.39906 8.10273 8.48721C8.0802 8.57536 8.03273 8.65515 7.966 8.717L6.01 10.683C7.647 13.911 10.065 16.329 13.308 17.98L15.257 16.03C15.3235 15.9642 15.4067 15.9177 15.4975 15.8955C15.5884 15.8733 15.6836 15.8762 15.773 15.904C16.969 16.3 18.223 16.5 19.5 16.5C19.775 16.5 20 16.725 20 17V20.5C20 20.775 19.775 21 19.5 21C10.402 21 3 13.598 3 4.5C3 4.36739 3.05268 4.24021 3.14645 4.14645C3.24021 4.05268 3.36739 4 3.5 4Z" fill="#111111"/>
</svg>

<svg width="24" height="24" viewBox="0 0 24 24" fill="none" xmlns="http://www.w3.org/2000/svg"><path d="M19.5 22c.827 0 1.5-.673 1.5-1.5V17c0-.827-.673-1.5-1.5-1.5-1.17 0-2.32-.184-3.42-.547a1.524 1.524 0 00-1.523.363l-1.44 1.44a14.655 14.655 0 01-5.885-5.883L8.66 9.436c.412-.382.56-.963.384-1.522A10.872 10.872 0 018.5 4.5C8.5 3.673 7.827 3 7 3H3.5C2.673 3 2 3.673 2 4.5 2 14.15 9.85 22 19.5 22zM3.5 4H7a.5.5 0 01.5.5c0 1.277.2 2.531.593 3.72a.473.473 0 01-.127.497L6.01 10.683c1.637 3.228 4.055 5.646 7.298 7.297l1.949-1.95a.516.516 0 01.516-.126c1.196.396 2.45.596 3.727.596.275 0 .5.225.5.5v3.5c0 .275-.225.5-.5.5C10.402 21 3 13.598 3 4.5a.5.5 0 01.5-.5z" fill="#111"/></svg>
